X: 10113
T: The TANK
P: Country dance.
%R: reel, march, shottish
B: W. Hamilton "Universal Tune-Book" Vol. 1 Glasgow 1844 p.11 #3
S: http://imslp.org/wiki/Hamilton's_Universal_Tune-Book_(Various)
Z: 2016 John Chambers <jc:trillian.mit.edu>
M: 2/4
L: 1/8
K: Bb
% - - - - - - - - - - - - - - - - - - - - - - - - -
z |\
B2 b2 | G2 g2 | F2 f>e | {e}d>c B2 |\
~d>e f2 | ~e>f g2 | f2 Ta2 | b3 :|\
|: e |\
~d2 d>e | f2 fd | (g>e) e>c | (cA) (AF) |\
d2 (d>e) | f3 d | (g>e) (cA) | B3 :|
% - - - - - - - - - - - - - - - - - - - - - - - - -

%%sep 1 1 500
%%sep 1 1 500

